X:1
T:Title
%%score { ( 1 4 5 ) | ( 2 3 6 ) }
L:1/8
Q:1/4=93
M:6/8
K:Ab
V:1 treble nm="Grand Piano"
V:4 treble 
V:5 treble 
V:2 bass 
V:3 bass 
V:6 bass 
V:1
 [CE][_C=D][=CE] [Ec][_DB][CA] | [DA][G,DG][A,DF][K:bass] [A,CE]3 | %2
w: W.~J.~Kirkpatrick * * * * *||
 [G,B,E][F,B,=D][K:treble][G,B,E] [B,EG][A,CF][G,E] | [=DF][EG][FA] G3 | AGA BAB | %5
w: |||
[M:7/8] cBc [Fd]3 [FB] |[M:3/4] A>A AG AB | [CEA]6 | [Ee]3 .[Ec]3 | [EAc]3 .[CEA]3 | %10
w: |||||
 AA A[=Dc] [DB][DA] |[M:7/8] B-B-B- B3 z |[M:3/4] c_c =c [Ge]2 [Ge] | %13
w: |||
[M:15/16] A>GA[=Ec]3/2- [Ec]3 | %14
w: |
[M:27/32] B/-<B/A/-<A/F/-<F/E/e/4-e/4-e/4-e/4-e/4-e/4-e/-<e/ z/4 z/ | %15
w: |
 z/ [Ac]/4-[Ac]/4-[Ac]/4-[Ac]/4-[Ac]/4-[Ac]/-<[Ac]/ z/4 z/4 z/4 z/4 z/4 z/4 z/4 z/4 z/4 z/4 z/4 z/4 z/4 z/4 z/ |] %16
w: |
V:2
 [A,,A,][A,,A,][A,,A,] [A,,E,][A,,E,][A,,E,] | [D,F,]D,D, A,,3 | B,,B,,B,, B,,B,,B,, | %3
 [B,,B,][B,,B,][B,,B,] [E,B,E]3 | [F,A,C][F,B,C][F,A,C] [E,G,E][E,F,E][E,G,E] | %5
[M:7/8][K:treble] [A,E][A,G][A,_G][K:bass] [D,A,]3 [D,D] | %6
[M:3/4] [E,CE]>[E,CE] [E,CE][E,B,E] [E,CE][E,DE] | A,,6 | C4 z2 | A,,>A,, A,,A,,/A,,/- A,, z | %10
 [F,A,C][F,A,C] [F,A,C][B,,A,] [B,,A,][B,,A,] |[M:7/8] [G,D] z z z z z2 | %12
[M:3/4] [A,E][A,E] [A,E] [E,B,]2 [E,D] |[M:15/16] [F,CF]>[F,B,F][F,A,F][C,G,]3/2- [C,G,]3 | %14
[M:27/32] [D,F,D]/-<[D,F,D]/[D,F,D]/-<[D,F,D]/[F,A,D]/-<[F,A,D]/[A,C]/[A,CE]/4-[A,CE]/4-[A,CE]/4-[A,CE]/4-[A,CE]/4-[A,CE]/4-[A,CE]/-<[A,CE]/ z/4 z/ | %15
 z/ E/4-E/4-E/4-E/4-E/4-E/-<E/ z/4 z/4 z/4 z/4 z/4 z/4 z/4 z/4 z/4 z/4 z/4 z/4 z/4 z/4 z/ |] %16
V:3
 x6 | x6 | x6 | x6 | x6 |[M:7/8][K:treble] x3[K:bass] x4 |[M:3/4] x6 | x6 | A,>A, A,A,/A,/- A, z | %9
 x6 | x6 |[M:7/8] E,-[E,-B,][E,-A,] [E,G,D]3 z |[M:3/4] x6 |[M:15/16] x15/2 |[M:27/32] x27/4 | %15
 [E,E]/E,/4-E,/4-E,/4-E,/4-E,/-<E,/ z/4 z/4 z/ A,,/4-A,,/4-A,,/4-A,,/4-A,,/4-A,,/-<A,,/ z/4 z/4 z/ |] %16
V:4
 x6 | x3[K:bass] x3 | x2[K:treble] x4 | x6 | x6 |[M:7/8] x7 |[M:3/4] x6 | x6 | x6 | x6 | x6 | %11
[M:7/8] z GF E3 z |[M:3/4] x6 |[M:15/16] x15/2 |[M:27/32] x27/4 | %15
 [Ac]/ z/4 z/4 z/4 z/4 z/4 z/4 z/4 z/4 z/4 z/4 z/ [CEA]/4-[CEA]/4-[CEA]/4-[CEA]/4-[CEA]/4-[CEA]/-<[CEA]/ z/4 z/4 z/ |] %16
V:5
 x6 | x3[K:bass] x3 | x2[K:treble] x4 | x6 | x6 |[M:7/8] x7 |[M:3/4] x6 | x6 | x6 | x6 | x6 | %11
[M:7/8] x7 |[M:3/4] x6 |[M:15/16] x15/2 |[M:27/32] x27/4 | %15
 z/4 z/4 z/4 z/4 z/4 z/4 z/4 z/4 z/ [DGB]/4-[DGB]/-<[DGB]/ z/4 z/4 z/4 z/4 z/4 z/4 z/4 z/4 z/4 z/4 z/ |] %16
V:6
 x6 | x6 | x6 | x6 | x6 |[M:7/8][K:treble] x3[K:bass] x4 |[M:3/4] x6 | x6 | x6 | x6 | x6 | %11
[M:7/8] x7 |[M:3/4] x6 |[M:15/16] x15/2 |[M:27/32] x27/4 | %15
 z/4 z/4 z/4 z/4 z/4 z/4 z/4 z/4 z/ E,/4-E,/-<E,/ z/4 z/4 z/4 z/4 z/4 z/4 z/4 z/4 z/4 z/4 z/ |] %16

